blockchains/ethereum/assets/0x0C10bF8FcB7Bf5412187A595ab97a3609160b5c6/logo.svg

<svg fill="none" height="250" viewBox="0 0 250 250" width="250" xmlns="http://www.w3.org/2000/svg" xmlns:xlink="http://www.w3.org/1999/xlink"><clipPath id="a"><path d="m0 0h250v250h-250z"/></clipPath><clipPath id="b"><path d="m0 0h250v250h-250z"/></clipPath><g clip-path="url(#a)"><g clip-path="url(#b)"><path d="m125 0c69.048 0 125 55.9524 125 125 0 69.048-55.952 125-125 125-69.0476 0-125-55.952-125-125 0-69.0476 55.9524-125 125-125z" fill="#fff"/><g fill="#216c58"><path d="m125 241.669c64.433 0 116.667-52.233 116.667-116.666 0-64.4336-52.234-116.66706-116.667-116.66706-64.4333 0-116.66675 52.23346-116.66675 116.66706 0 64.433 52.23345 116.666 116.66675 116.666z" stroke="#216c58" stroke-width=".7"/><path d="m233.333 124.997c0 60.119-48.214 108.334-108.333 108.334s-108.3333-48.215-108.3333-108.334c0-60.1187 48.2143-108.3329 108.3333-108.3329s108.333 48.2142 108.333 108.3329z"/><path d="m122.619 177.383h-12.5v12.5h12.5z"/><path d="m143.452 177.383h-12.5v12.5h12.5z"/></g><g fill="#fff"><path d="m89.2858 47.6172h79.1662c2.381 0 4.167 2.3809 4.167 4.1667v2.3809c0 2.381-1.786 4.1667-4.167 4.1667h-79.1662c-2.3809 0-4.1667-1.7857-4.1667-4.1667v-2.3809c0-1.7858 2.381-4.1667 4.1667-4.1667z"/><path d="m125 62.5v141.667c0 2.381-1.786 4.166-4.167 4.166h-2.381c-2.381 0-4.166-1.785-4.166-4.166v-141.667z"/><path d="m141.667 62.5v141.667c0 2.381-1.786 4.166-4.167 4.166h-2.381c-2.381 0-4.167-1.785-4.167-4.166v-141.667z"/><path d="m116.071 97.6217c2.977-1.1905 6.548-1.7858 11.31-1.7858 6.548 0 11.309 1.1905 14.881 3.5715 2.381 1.7856 4.167 3.5716 5.357 6.5476 1.19 2.381 2.976 4.762 6.548 4.762h19.047c3.572 0 6.548-2.976 5.953-6.548-.596-5.9521-2.977-10.714-6.548-15.4759-4.167-5.9524-10.714-10.1191-18.452-13.0953-7.738-2.9761-16.667-4.7619-26.786-4.7619s-19.048 1.7858-26.786 4.7619c-7.7379 2.9762-14.2855 7.7381-19.0474 13.0953-4.7619 5.9524-7.1429 12.4999-7.1429 20.2379 0 9.524 3.5714 17.262 10.7143 22.619s16.071 9.524 27.381 11.905l14.881 2.976c4.762 1.191 8.928 2.381 11.905 3.572 2.976 1.19 5.357 2.381 7.143 4.166 1.19 1.191 2.38 2.976 2.38 5.357s-.595 4.167-2.38 6.548c-1.786 1.786-4.167 3.571-7.739 4.762-2.976 1.19-7.142 1.786-11.904 1.786s-8.929-.596-12.5-1.786c-3.572-1.191-6.548-2.976-8.334-5.357-1.19-1.786-2.381-3.572-2.976-5.357-.595-2.977-2.976-5.357-6.5475-5.357h-19.0476c-3.5714 0-6.5476 2.976-5.9524 6.547.5953 7.143 2.9762 13.095 7.1429 18.453 4.7619 5.952 11.3095 10.714 19.6428 13.69 8.3338 2.976 17.8568 4.762 29.1668 4.762 11.309 0 20.833-1.191 28.571-4.762 8.334-2.976 14.286-7.143 18.453-13.095 4.166-5.953 6.547-12.5 6.547-20.238 0-5.357-1.19-10.119-3.571-14.286s-5.357-7.738-8.929-10.714c-3.571-2.977-8.333-5.357-13.095-7.738-4.762-1.786-10.714-3.572-16.667-4.762l-11.904-2.381c-2.977-.596-5.357-1.191-7.738-1.786s-4.762-1.786-6.548-2.976c-1.786-1.191-2.976-2.381-4.167-3.572-.595-1.19-1.19-2.381-1.19-4.166 0-1.786.595-4.167 1.786-5.357 2.38-2.381 4.166-3.5719 7.142-4.7623z" stroke="#216c58" stroke-width=".7"/><path d="m125 89.8828h-10.714v14.2862h10.714z"/><path d="m125 141.664h-10.714v14.881h10.714z"/><path d="m125 185.117h-10.714v14.286h10.714z"/><path d="m142.262 89.8828h-10.714v14.2862h10.714z"/><path d="m142.262 141.664h-10.714v14.881h10.714z"/><path d="m142.262 185.117h-10.714v14.286h10.714z"/><path clip-rule="evenodd" d="m229.762 130.95c-1.786 0-2.976 1.19-2.976 2.976-4.762 52.381-48.214 93.452-101.786 93.452-53.5713 0-97.0237-41.071-101.7856-93.452 0-1.786-1.7857-2.976-2.9762-2.976-1.7857 0-2.9762 1.785-2.9762 3.571 4.7619 55.357 51.1905 98.81 107.738 98.81 56.548 0 102.976-43.453 107.738-98.81.595-1.786-1.19-3.571-2.976-3.571zm-209.5238-11.905c1.7857 0 2.9762-1.19 2.9762-2.976 4.7619-52.3811 48.2143-92.8573 101.7856-92.8573 53.572 0 97.024 41.0714 101.786 92.8573 0 1.786 1.786 2.976 2.976 2.976 1.786 0 2.976-1.786 2.976-3.571-4.762-55.3576-51.19-98.8099-107.738-98.8099-56.5475 0-102.9761 43.4523-107.738 98.8099-.5952 1.785 1.1905 3.571 2.9762 3.571z" fill-rule="evenodd"/></g></g></g></svg>

<svg width="250" height="250" viewBox="0 0 250 250" fill="none" xmlns="http://www.w3.org/2000/svg">
<g clip-path="url(#clip0_48_12874)">
<g clip-path="url(#clip1_48_12874)">
<path d="M125 0C194.048 0 250 55.9524 250 125C250 194.048 194.048 250 125 250C55.9524 250 0 194.048 0 125C0 55.9524 55.9524 0 125 0Z" fill="white"/>
<path d="M125 241.669C189.433 241.669 241.667 189.436 241.667 125.003C241.667 60.5694 189.433 8.33594 125 8.33594C60.5667 8.33594 8.33325 60.5694 8.33325 125.003C8.33325 189.436 60.5667 241.669 125 241.669Z" fill="#216C58" stroke="#216C58" stroke-width="0.7"/>
<path d="M233.333 124.997C233.333 185.116 185.119 233.331 125 233.331C64.881 233.331 16.6667 185.116 16.6667 124.997C16.6667 64.8783 64.881 16.6641 125 16.6641C185.119 16.6641 233.333 64.8783 233.333 124.997Z" fill="#216C58"/>
<path d="M122.619 177.383H110.119V189.883H122.619V177.383Z" fill="#216C58"/>
<path d="M143.452 177.383H130.952V189.883H143.452V177.383Z" fill="#216C58"/>
<path d="M89.2858 47.6172H168.452C170.833 47.6172 172.619 49.9981 172.619 51.7839V54.1648C172.619 56.5458 170.833 58.3315 168.452 58.3315H89.2858C86.9049 58.3315 85.1191 56.5458 85.1191 54.1648V51.7839C85.1191 49.9981 87.5001 47.6172 89.2858 47.6172Z" fill="white"/>
<path d="M125 62.5V204.167C125 206.548 123.214 208.333 120.833 208.333H118.452C116.071 208.333 114.286 206.548 114.286 204.167V62.5H125Z" fill="white"/>
<path d="M141.667 62.5V204.167C141.667 206.548 139.881 208.333 137.5 208.333H135.119C132.738 208.333 130.952 206.548 130.952 204.167V62.5H141.667Z" fill="white"/>
<path d="M116.071 97.6217C119.048 96.4312 122.619 95.8359 127.381 95.8359C133.929 95.8359 138.69 97.0264 142.262 99.4074C144.643 101.193 146.429 102.979 147.619 105.955C148.809 108.336 150.595 110.717 154.167 110.717H173.214C176.786 110.717 179.762 107.741 179.167 104.169C178.571 98.2169 176.19 93.455 172.619 88.6931C168.452 82.7407 161.905 78.574 154.167 75.5978C146.429 72.6217 137.5 70.8359 127.381 70.8359C117.262 70.8359 108.333 72.6217 100.595 75.5978C92.8571 78.574 86.3095 83.3359 81.5476 88.6931C76.7857 94.6455 74.4047 101.193 74.4047 108.931C74.4047 118.455 77.9761 126.193 85.119 131.55C92.2619 136.907 101.19 141.074 112.5 143.455L127.381 146.431C132.143 147.622 136.309 148.812 139.286 150.003C142.262 151.193 144.643 152.384 146.429 154.169C147.619 155.36 148.809 157.145 148.809 159.526C148.809 161.907 148.214 163.693 146.429 166.074C144.643 167.86 142.262 169.645 138.69 170.836C135.714 172.026 131.548 172.622 126.786 172.622C122.024 172.622 117.857 172.026 114.286 170.836C110.714 169.645 107.738 167.86 105.952 165.479C104.762 163.693 103.571 161.907 102.976 160.122C102.381 157.145 100 154.765 96.4285 154.765H77.3809C73.8095 154.765 70.8333 157.741 71.4285 161.312C72.0238 168.455 74.4047 174.407 78.5714 179.765C83.3333 185.717 89.8809 190.479 98.2142 193.455C106.548 196.431 116.071 198.217 127.381 198.217C138.69 198.217 148.214 197.026 155.952 193.455C164.286 190.479 170.238 186.312 174.405 180.36C178.571 174.407 180.952 167.86 180.952 160.122C180.952 154.765 179.762 150.003 177.381 145.836C175 141.669 172.024 138.098 168.452 135.122C164.881 132.145 160.119 129.765 155.357 127.384C150.595 125.598 144.643 123.812 138.69 122.622L126.786 120.241C123.809 119.645 121.429 119.05 119.048 118.455C116.667 117.86 114.286 116.669 112.5 115.479C110.714 114.288 109.524 113.098 108.333 111.907C107.738 110.717 107.143 109.526 107.143 107.741C107.143 105.955 107.738 103.574 108.929 102.384C111.309 100.003 113.095 98.8121 116.071 97.6217Z" fill="white" stroke="#216C58" stroke-width="0.7"/>
<path d="M125 89.8828H114.286V104.169H125V89.8828Z" fill="white"/>
<path d="M125 141.664H114.286V156.545H125V141.664Z" fill="white"/>
<path d="M125 185.117H114.286V199.403H125V185.117Z" fill="white"/>
<path d="M142.262 89.8828H131.548V104.169H142.262V89.8828Z" fill="white"/>
<path d="M142.262 141.664H131.548V156.545H142.262V141.664Z" fill="white"/>
<path d="M142.262 185.117H131.548V199.403H142.262V185.117Z" fill="white"/>
<path fill-rule="evenodd" clip-rule="evenodd" d="M229.762 130.95C227.976 130.95 226.786 132.14 226.786 133.926C222.024 186.307 178.572 227.378 125 227.378C71.4287 227.378 27.9763 186.307 23.2144 133.926C23.2144 132.14 21.4287 130.95 20.2382 130.95C18.4525 130.95 17.262 132.735 17.262 134.521C22.0239 189.878 68.4525 233.331 125 233.331C181.548 233.331 227.976 189.878 232.738 134.521C233.333 132.735 231.548 130.95 229.762 130.95ZM20.2382 119.045C22.0239 119.045 23.2144 117.855 23.2144 116.069C27.9763 63.6879 71.4287 23.2117 125 23.2117C178.572 23.2117 222.024 64.2831 226.786 116.069C226.786 117.855 228.572 119.045 229.762 119.045C231.548 119.045 232.738 117.259 232.738 115.474C227.976 60.1164 181.548 16.6641 125 16.6641C68.4525 16.6641 22.0239 60.1164 17.262 115.474C16.6668 117.259 18.4525 119.045 20.2382 119.045Z" fill="white"/>
</g>
</g>
<defs>
<clipPath id="clip0_48_12874">
<rect width="250" height="250" fill="white"/>
</clipPath>
<clipPath id="clip1_48_12874">
<rect width="250" height="250" fill="white"/>
</clipPath>
</defs>
</svg>
